X:1

T:Road to Lisdoonvarna, The  [2]

T:All the Ways to Galway

R:reel

Z:id:hn-reel-195

Z:transcribed by henrik.norbeck@mailbox.swipnet.se

M:C|

K:D

d2fd cA~A2|BG~G2 cA~A2|d2fd cA~A2|BGAF D4:|

~A3G AB=cA|GAGF EFG2|ABAG AB=cA|GE=cE D4|

DAAG AB=cA|GE~E2 =cEGE|DAAG AB=cA|GE=cE D4|

           

ROAD TO LONDON. AKA and see "Road to Boston."

           

ROAD TO LURGAN, THE (An Botar Go Lurraga). AKA and see "Cailleach an Tuirne," "Cailin an Tuirna," "Garrett Barry{‘s Jig}," "Gearoid de Barra," "Is Maith Le Nora Ciste" (Nora Likes Cake), "Kiss Me Darling," "The Ladies' Fancy [3],” "The Maid at the Spinning Wheel," "Maire an Phortair," “Noran Kista,” “Nora’s Purse,” "Norickystie," "Port an Achreidh,” “Sergeant Early's Jig," “The Spinning Wheel [4].” "Tune the Fiddle,” "The Wild Irishman [4],” "Wreathe the Bowl.” Irish, Double Jig. G Major. Standard tuning. AABB. Not to be confused with the reel recorded by Paddy Killoran “On the Road to Lurgan.” O'Neill (Music of Ireland: 1850 Melodies), 1903/1979; No. 830, pg. 154. O'Neill (Dance Music of Ireland: 1001 Gems), 1907/1986; No. 94, pg. 31.

